X:5
T:Coquet. THO5.005, The
M:C|
L:1/8
B:Thompson's Complete Collection of 200 Favourite Dances Vol.5
F:https://www.libraryofdance.org/manuals/1780c-Thompson-Compleat-5.pdf
Z:vmp. Peter Dunk 2024
Q:1/4=140
K:A
ABcd e2e2|f2e2a2g2|f2e2d2c2|BAGF E2E2|
ABcd e2e2|f2e2d2c2|B2A2 GABG|A4 A,4:|
|:GABc dcdB|ABcd e2e2|GABc dcdB|ABcd e2e2|
f2 f>f e2e2|d2d>d c2c2|B2A2 GABG|A4 A,4:|
W:
W:Tree Ladies go round the three Gents ./:
W:Three Gents round the three Ladies :/.
W:Lead down the middle, up again and cast off ./:
W:Allemand with your partner :/:

